X: 3
T: The College Groves
R: reel
M: 4/4
L: 1/8
K: Dmaj
A | D/D/D FD ADFD | E=cGc e=CCE | D/D/D FD ADFD | BdAd FD D :|g | fdag fddf | e=cgf ecce | fdag fdec | dBAd FD Dg | fdag fddf | e=cgf ecce | dfeg fagb | afge fd d |]


Tune 1272	Setting 26779

